!!!!SEGMENT: pl-cz--i-163_anonim--veni-creator-qui-diceris-paraclytus.krn
!!!cenid: 17xx:2314
!!!COM: Anonim
!!!COM-rismid: pe30004985
!!!CDT:
!!!CNT:
!!!OTL: [Veni Creator] / Qui diceris Paraclytus
!!!PDT:
!!!AGN:
!!!SMS-siglum: PL-CZ
!!!SMS-shelfmark: I-163
!!!SMS-variant:
!!!SMS-altvar:
!!!SMS-shelfwork: W
!!!NIFC-rismid: 1001008605
!!!URL-scan: https://repozytorium.nifc.pl/islandora/object/pl-cz%3A932/datastream/PDF/view
!!!ONB-nifc:
!!!key:
**kern	**fb	**kern	**text	**text	**text	**text	**kern	**text	**text	**text	**text	**kern	**text	**text	**text	**text	**kern	**text	**text	**text	**text	**text	**text	**text
*part5	*	*part4	*part4	*part4	*part4	*part4	*part3	*part3	*part3	*part3	*part3	*part2	*part2	*part2	*part2	*part2	*part1	*part1	*part1	*part1	*part1	*part1	*part1	*part1
*staff5	*	*staff4	*staff4	*staff4	*staff4	*staff4	*staff3	*staff3	*staff3	*staff3	*staff3	*staff2	*staff2	*staff2	*staff2	*staff2	*staff1	*staff1	*staff1	*staff1	*staff1	*staff1	*staff1	*staff1
*I"Baſso viola	*	*I"Baſso	*	*	*	*	*I"Tenore	*	*	*	*	*I"Alto	*	*	*	*	*I"Canto	*	*	*	*	*	*	*
*I'vla basso	*	*I'B	*	*	*	*	*I'T	*	*	*	*	*I'A	*	*	*	*	*I'S	*	*	*	*	*	*	*
*Iviolb	*	*Ibass	*	*	*	*	*Itenor	*	*	*	*	*Ialto	*	*	*	*	*Isoprn	*	*	*	*	*	*	*
*ICstr	*	*ICvox	*	*	*	*	*ICvox	*	*	*	*	*ICvox	*	*	*	*	*ICvox	*	*	*	*	*	*	*
*IGcont	*	*IGcoro	*	*	*	*	*IGcoro	*	*	*	*	*IGcoro	*	*	*	*	*IGcoro	*	*	*	*	*	*	*
*clefF4	*	*clefF4	*	*	*	*	*clefC4	*	*	*	*	*clefC3	*	*	*	*	*clefC1	*	*	*	*	*	*	*
*k[]	*	*k[]	*	*	*	*	*k[]	*	*	*	*	*k[]	*	*	*	*	*k[]	*	*	*	*	*	*	*
*a:	*	*a:	*	*	*	*	*a:	*	*	*	*	*a:	*	*	*	*	*a:	*	*	*	*	*	*	*
*M3/1	*	*M3/1	*	*	*	*	*M3/1	*	*	*	*	*M3/1	*	*	*	*	*M3/1	*	*	*	*	*	*	*
=1	=1	=1	=1	=1	=1	=1	=1	=1	=1	=1	=1	=1	=1	=1	=1	=1	=1	=1	=1	=1	=1	=1	=1	=1
*all\right	*	*all\right	*	*	*	*	*all\right	*	*	*	*	*all\right	*	*	*	*	*all\right	*	*	*	*	*	*	*
*	*	*	*	*	*	*	*2\right	*	*	*	*	*	*	*	*	*	*2\right	*	*	*	*	*	*	*
!LO:TX:a:t=Hymn N 5.	!	!	!	!	!	!	!LO:TX:a:t=Hymn N 5.	!	!	!	!	!LO:TX:a:t=Hymn N 5.	!	!	!	!	!LO:TX:a:t=Hymn N 5.	!	!	!	!	!	!	!
0.A	.	0.A	Qui	Ac-	Per	De-	2c\	Qui	Ac-	Per	De-	1.e	Qui	Ac-	Per	De-	(2a\	1. Qui	2. Ac-	.	3. Per	.	4. [[De-	De-
.	.	.	.	.	.	.	2B\	.	.	.	.	.	.	.	.	.	2b\)	.	.	.	.	.	.	.
.	.	.	.	.	.	.	2A\	.	.	.	.	.	.	.	.	.	(2cc\	.	.	.	.	.	-o	.
.	.	.	.	.	.	.	2B\	.	.	.	.	4f\	.	.	.	.	2dd\)	.	.	.	.	.	.	.
.	.	.	.	.	.	.	.	.	.	.	.	4g\	.	.	.	.	.	.	.	.	.	.	.	.
.	.	.	.	.	.	.	1c	.	.	.	.	1a	.	.	.	.	1ee	.	.	[[cen-	.	[[te	.	.
=2	=2	=2	=2	=2	=2	=2	=2	=2	=2	=2	=2	=2	=2	=2	=2	=2	=2	=2	=2	=2	=2	=2	=2	=2
1.D	.	1.D	di-	-cen-	te	-o	1.d	di-	-cen-	te	-o	1.a	di-	-cen-	te	-o	1.ff	di-	-cen-	-de	te	ſci-	Pa-	-o
*2\right	*	*	*	*	*	*	*	*	*	*	*	*2\right	*	*	*	*	*	*	*	*	*	*	*	*
2E\	.	2E/	-ce-	-de	sci-	Pa-	2c\	-ce-	-de	ſci-	Pa-	2e\	-ce-	-de	ſci-	Pa-	2ee\	-ce-	-de	lu-	sci-	-a-	-tri	Pa-
1F	.	1F	-ris	lu-	-a-	-tri	1B	-ris	lu-	-a-	-tri	1a	-ris	lu-	-a-	-tri	1dd	-ris	lu-	-men	-a-	-mus	sit	-tri
=3	=3	=3	=3	=3	=3	=3	=3	=3	=3	=3	=3	=3	=3	=3	=3	=3	=3	=3	=3	=3	=3	=3	=3	=3
1C	.	1C	Pa-	-men	-m(us)	sit	1A	Pa-	-men	-m(us)	sit	1e	Pa-	-men	-m(us)	sit	1cc	Pa-	-men	Sen-	-m(us)	da	Glo-	ſit
0E	#	1.E	-ra-	Sen-	da	Glo-	1.A	-ra-	sen-	da	Glo-	1.e	-ra-	sen-	da	Glo-	1.b	-ra-	sen-	-si-	da	Pa-	-ri-	glo-
!	!	!	!	!	!	!	!LO:TX:t=P:problem=# above and below	!	!	!	!	!	!	!	!	!	!	!	!	!	!	!	!	!
.	.	2E/	-cly-	-si-	Pa-	-ri-	2G#X/	-cly-	-si-	Pa-	-ri-	2d/	-cly-	-si-	Pa-	-ri-	2b\	-cly-	-si-	-bus]]	Pa-	-trem]]	-a]]	-ri-
=4	=4	=4	=4	=4	=4	=4	=4	=4	=4	=4	=4	=4	=4	=4	=4	=4	=4	=4	=4	=4	=4	=4	=4	=4
!	!	!	!	!	!	!	!	!	!	!	!	!LO:TX:t=P:problem=oddech jako rozdzielacz słów	!	!	!	!	!	!	!	!	!	!	!	!
0AA	.	0AA	-tus	-bus	-trem	-a	0A	-tus	-b(us)	-trem	-a	0c,<	-tus	-b(us)	-trem	-a,	0.a	-tus	-bus	.	-trem	.	.	-a
1A	.	1A	Al-	In	No-	Et	1A	Al-	In	No-	Et	1a	Al-	In	nos-	Et	.	.	.	.	.	.	.	.
=5	=5	=5	=5	=5	=5	=5	=5	=5	=5	=5	=5	=5	=5	=5	=5	=5	=5	=5	=5	=5	=5	=5	=5	=5
1.c	.	1.c	-ti-	fun-	-sca-	Fi-	1.e	-ti-	fun-	-sca-	Fi-	1.g	-ti-	fun-	-ca-	Fi-	1r	.	.	.	.	.	.	.
.	.	.	.	.	.	.	.	.	.	.	.	.	.	.	.	.	1r	.	.	.	.	.	.	.
*	*	*2\right	*	*	*	*	*	*	*	*	*	*	*	*	*	*	*	*	*	*	*	*	*	*
2B\	.	2B\	-ſsi-	-de	-m(us)	-li-	2d\	-ſsi-	-de	-m(us)	-li-	2g\	-ſsi-	-de	-mus	-li-	.	.	.	.	.	.	.	.
1A	.	1A	-mi	a-	at-	-o	1c	-mi	a-	at-	-o	1c	-mi	a-	at-	-o	1ee	Al-	In-	.	Nos-	.	.	Et
=6	=6	=6	=6	=6	=6	=6	=6	=6	=6	=6	=6	=6	=6	=6	=6	=6	=6	=6	=6	=6	=6	=6	=6	=6
1.G	.	1.G	Do-	-mo-	-q(ue)	qui-	2B\	Do-	-mo-	-que	qui-	0g	Do-	-mo-	[[-que]]	qui-	2gg\	-ti-	-fun-	.	-ca-	.	.	Fi-
.	.	.	.	.	.	.	2A\	.	.	.	.	.	.	.	.	.	(4ff\	-ſsi-	.	.	.	[[mus	.	-li-
.	.	.	.	.	.	.	.	.	.	.	.	.	.	.	.	.	4ee\)	.	.	.	.	at-	.	.
.	.	.	.	.	.	.	2B\	.	.	.	.	.	.	.	.	.	2dd\	.	-de	.	.	-que]]	.	-o
4F\	.	4F\	.	.	.	.	2c\	.	.	.	.	.	.	.	.	.	2ee\	.	a-	.	-mus	.	.	.
4E\	.	4E\	.	.	.	.	.	.	.	.	.	.	.	.	.	.	.	.	.	.	.	.	.	.
1D	.	1D	.	.	Fi-	-a	1d	.	.	.	.	1a	.	.	-qve	.	1ff	-mi	-mo-	.	at-	.	.	qui-
=7	=7	=7	=7	=7	=7	=7	=7	=7	=7	=7	=7	=7	=7	=7	=7	=7	=7	=7	=7	=7	=7	=7	=7	=7
1E	.	1E	.	-rem	.	mor-	1c	.	-rem	.	-a	1g	.	-rem	.	-a	1ee	Do-	-rem	.	-q(ue)	.	.	-a
0G	.	1.G	-num	Cor-	.	.	1.c	-num	Cor-	Fi-	mor-	1.g	-num	Cor-	Fi-	mor-	1.dd	-num	Cor-	.	Fi-	.	.	mor-
.	.	2G\	De-	-di-	-li-	-tu-	2B\	De-	-di-	-li-	-tu-	2g\	De-	-di-	-li-	-tu-	2dd\	De-	-di-	.	-li	.	.	-tu-
!	!	!	!	!	!	!	!	!	!	!	!	!	!	!	!	!	!LO:LB:g=original	!	!	!	!	!	!	!
=8	=8	=8	=8	=8	=8	=8	=8	=8	=8	=8	=8	=8	=8	=8	=8	=8	=8	=8	=8	=8	=8	=8	=8	=8
0.C	.	0.C	-i	-b(us)	-um	-is	0.c	-i	-b(us)	-um	-is	0.g	-i	-bus.	-um	-is	0.cc	-i,	-b(us),	.	-um,	.	.	-is,
=9	=9	=9	=9	=9	=9	=9	=9	=9	=9	=9	=9	=9	=9	=9	=9	=9	=9	=9	=9	=9	=9	=9	=9	=9
1E	.	1E	Fons	In-	te	Sur-	1e	Fons	In-	Teq(us)	sur-	1g	Fons	In-	[[teq(ue)]]te	Sur-	1gg	Fons	In-	.	Te-	.	.	Sur-
0G	.	1.F	ui-	-fir-	ut-	-re-	1.d	ui-	-fir-	ut-	-re-	1.a	ui-	-fir-	ut-	-re-	1.ff	ui-	-fir-	.	u-	[[-que	.	-re-
.	.	2F\	-u(us)	-ma	-ri-	-xit	2c\	-u(us)	-ma	-ri-	-xit	2a\	-u(us)	-ma	-ri-	-xit	2ee\	-uus	-ma	.	-tri	u-	.	-xit,
!	!	!LO:LB:g=original	!	!	!	!	!LO:LB:g=original	!	!	!	!	!LO:LB:g=original	!	!	!	!	!	!	!	!	!	!	!	!
=10	=10	=10	=10	=10	=10	=10	=10	=10	=10	=10	=10	=10	=10	=10	=10	=10	=10	=10	=10	=10	=10	=10	=10	=10
0G	.	0G	Ig-	no-	-us-	ac	0B	Ig-	no-	-us-	ac	0g	Ig-	no-	-us-	ac	0dd	I-	nos-	.	us-	-tri]]	.	ac
!	!	!	!	!	!	!	!	!	!	!	!	!LO:TX:t=P:problem=# above, below and middle	!	!	!	!	!	!	!	!	!	!	!	!
1A	#	1A	-nis	-stri	-que	pa-	1A	-nis	-stri	-q(ue)	pa-	1f#X	-nis	-stri	-q(ue)	pa-	1cc	-gnis	-tri	.	-q(ue)	.	.	pa-
!LO:LB:g=original	!	!	!	!	!	!	!	!	!	!	!	!	!	!	!	!	!	!	!	!	!	!	!	!
=11	=11	=11	=11	=11	=11	=11	=11	=11	=11	=11	=11	=11	=11	=11	=11	=11	=11	=11	=11	=11	=11	=11	=11	=11
0G	.	1.G	Chn-	Cor-	Spi-	-ra-	1.B	Cha-	Cor-	Spi-	-ra-	1.g	Cha-	Cor-	Spi-	-ra-	1.dd	Cha-	Cor-	.	Spi-	.	.	-ra-
.	.	2G\	-ri-	-po-	-ri-	-cly-	2B/	-ri-	-po-	-ri-	-cly-	2g\	-ri-	-po-	-ri-	-cly-	2dd\	-ri-	-po-	.	-ri-	.	.	-cly-
1G	.	1G	-tas	-ris	-tum	-to	1B	-tas	-ris	-tum	-to	1g	-tas,	-ris	-tum	-to	1dd	-tas	-ris,	.	-tum,	.	.	-to,
=12	=12	=12	=12	=12	=12	=12	=12	=12	=12	=12	=12	=12	=12	=12	=12	=12	=12	=12	=12	=12	=12	=12	=12	=12
!	!	!LO:TX:a:t=1	!	!	!	!	!	!	!	!	!	!	!	!	!	!	!LO:TX:a:t=3.	!	!	!	!	!	!	!
2G\	.	0.r	.	.	.	.	(2G/	Et	Vir-	Cre-	In	00.r	.	.	.	.	00.r	.	.	.	.	.	.	.
2F\	.	.	.	.	.	.	2A/)	.	.	.	.	.	.	.	.	.	.	.	.	.	.	.	.	.
2D\	.	.	.	.	.	.	(2B/	Spi-	-tu-	-da-	Sae-	.	.	.	.	.	.	.	.	.	.	.	.	.
2E\	.	.	.	.	.	.	2c/)	.	.	.	.	.	.	.	.	.	.	.	.	.	.	.	.	.
2F\	.	.	.	.	.	.	(2d/	-ri-	-te	-mus	-cu-	.	.	.	.	.	.	.	.	.	.	.	.	.
2D\	.	.	.	.	.	.	2B/)	.	.	.	.	.	.	.	.	.	.	.	.	.	.	.	.	.
=13	=13	=13	=13	=13	=13	=13	=13	=13	=13	=13	=13	=13	=13	=13	=13	=13	=13	=13	=13	=13	=13	=13	=13	=13
2C\	.	(2C/	Et	Vir-	Cre-	In	2c\	-ta-	fir-	O-	-lo-	.	.	.	.	.	.	.	.	.	.	.	.	.
2D\	.	2D/)	.	.	.	.	4B\	.	.	.	.	.	.	.	.	.	.	.	.	.	.	.	.	.
.	.	.	.	.	.	.	4A\	.	.	.	.	.	.	.	.	.	.	.	.	.	.	.	.	.
2E\	.	(2E/	Spi-	-tu-	-da-	Sae-	(2G/	.	.	.	.	.	.	.	.	.	.	.	.	.	.	.	.	.
2F\	.	2F/)	.	.	.	.	2A/)	.	.	.	.	.	.	.	.	.	.	.	.	.	.	.	.	.
2G\	.	(2G\	-ri-	-te	-mus	-cu-	2B/	.	.	.	.	.	.	.	.	.	.	.	.	.	.	.	.	.
2E\	.	2E\)	.	.	.	.	2G/	-lis	-mans	-mni	-rum	.	.	.	.	.	.	.	.	.	.	.	.	.
=14	=14	=14	=14	=14	=14	=14	=14	=14	=14	=14	=14	=14	=14	=14	=14	=14	=14	=14	=14	=14	=14	=14	=14	=14
1.F	.	1.F	-ta-	fir-	O-	-lo-	(2A/	Et	fir-	O-	In	(2c\	Et	Vir-	Cre-	In	0.r	.	.	.	.	.	.	.
.	.	.	.	.	.	.	2B/)	.	.	.	.	2d\)	.	.	.	.	.	.	.	.	.	.	.	.
.	.	.	.	.	.	.	(2c/	Spi-	.	.	Sae-	(2e\	Spi-	-tu-	-da-	Sae-	.	.	.	.	.	.	.	.
4E\	.	4E\	.	.	.	.	2d/)	.	.	.	.	2f\)	.	.	.	.	.	.	.	.	.	.	.	.
4D\	.	4D\	.	.	.	.	.	.	.	.	.	.	.	.	.	.	.	.	.	.	.	.	.	.
1C	.	1C	-lis	-mans	-mni	-rum	(2e/	-ri-	-mans	-mni	-cu-	(2g\	-ri-	-te	-mus	-cu-	.	.	.	.	.	.	.	.
.	.	.	.	.	.	.	2c/)	.	.	.	.	2e\)	.	.	.	.	.	.	.	.	.	.	.	.
=15	=15	=15	=15	=15	=15	=15	=15	=15	=15	=15	=15	=15	=15	=15	=15	=15	=15	=15	=15	=15	=15	=15	=15	=15
2FF/	.	(2FF/	Et	Vir-	Cre-	In	1.f	-ta-	fir-	O-	-lo-	1.a	-ta-	Fir-	O-	-lo-	(2a\	Et	Vir-	.	Cre-	.	.	In
2GG/	.	2GG/)	.	.	.	.	.	.	.	.	.	.	.	.	.	.	2b\)	.	.	.	.	.	.	.
2AA/	.	(2AA/	Spi-	-tu-	-da-	Sae-	.	.	.	.	.	.	.	.	.	.	(2cc\	Spi-	-tu-	.	-da-	.	.	sae-
2BB/	.	2BB/)	.	.	.	.	4e\	.	.	.	.	4g\	.	.	.	.	2dd\)	.	.	.	.	.	.	.
.	.	.	.	.	.	.	4d\	.	.	.	.	4f\	.	.	.	.	.	.	.	.	.	.	.	.
2C/	.	(2C/	-ri-	-te	-mus	-cu-	2c\	.	.	.	.	2e\	.	.	.	.	(2ee\	-ri-	-te	.	-mus	.	.	-cu-
2AA/	.	2AA/)	.	.	.	.	2e\	-lis	-mans	-mni	-rum	2a\	.	.	.	.	2cc\)	.	.	.	.	.	.	.
!	!	!	!	!	!	!	!LO:PB:g=original	!	!	!	!	!	!	!	!	!	!	!	!	!	!	!	!	!
=16	=16	=16	=16	=16	=16	=16	=16	=16	=16	=16	=16	=16	=16	=16	=16	=16	=16	=16	=16	=16	=16	=16	=16	=16
2D\	.	2D\	-ta-	fir-	O-	-lo-	2d\	Vn-	Per-	Tem-	Sae-	2f\	.	.	.	.	1.ff	-ta-	fir-	.	O-	.	.	-lo-
2E\	.	2E\	.	.	.	.	4c\	.	.	.	.	2g\	.	.	.	.	.	.	.	.	.	.	.	.
.	.	.	.	.	.	.	4B\	.	.	.	.	.	.	.	.	.	.	.	.	.	.	.	.	.
2F\	.	2F\	.	.	.	.	2A\	.	.	.	.	2a\	.	.	.	.	.	.	.	.	.	.	.	.
2G\	.	2G\	.	.	.	.	2B\	.	.	.	.	4g\	.	.	.	.	4ee\	.	.	.	.	.	.	.
.	.	.	.	.	.	.	.	.	.	.	.	4f\	.	.	.	.	4dd\	.	.	.	.	.	.	.
2A\	.	2A\	.	.	.	.	2c\	.	.	.	.	2e\	.	.	.	.	2cc\	.	.	.	.	.	.	.
2E\	.	2E\	-lis	-mans	-mni	-rum	4B\	.	.	.	.	2g\	.	.	.	.	2ee\	.	.	.	.	.	.	.
.	.	.	.	.	.	.	4A\	.	.	.	.	.	.	.	.	.	.	.	.	.	.	.	.	.
!	!	!LO:PB:g=original	!	!	!	!	!	!	!	!	!	!	!	!	!	!	!	!	!	!	!	!	!	!
=17	=17	=17	=17	=17	=17	=17	=17	=17	=17	=17	=17	=17	=17	=17	=17	=17	=17	=17	=17	=17	=17	=17	=17	=17
2A\	.	2G\	Vn-	Fir-	O-	Sae-	2B\	.	.	.	.	1d	.	.	.	-[[rum]]-	1dd	.	.	.	.	.	.	.
2E\	.	2E\	.	.	.	.	2G\	.	.	.	.	.	.	.	.	.	.	.	.	.	.	.	.	.
2F\	.	2F\	.	.	.	.	2A\	.	.	.	.	1a	.	.	.	.	1.cc	.	.	.	.	.	.	.
2G\	.	2G\	.	.	.	.	2B\	.	.	.	.	.	.	.	.	.	.	.	.	.	.	.	.	.
2A\	.	2A\	.	.	.	.	2c\	.	.	.	.	1f	.	.	.	.	.	.	.	.	.	.	.	.
2B\	.	2B\	.	.	.	.	2d\	.	.	.	.	.	.	.	.	.	2b\	-[[lis]]-	-mans	.	-[[mni]]-	.	.	-[[rum]]-
!LO:LB:g=original	!	!	!	!	!	!	!	!	!	!	!	!	!	!	!	!	!	!	!	!	!	!	!	!
=18	=18	=18	=18	=18	=18	=18	=18	=18	=18	=18	=18	=18	=18	=18	=18	=18	=18	=18	=18	=18	=18	=18	=18	=18
!	!	!	!	!	!	!	!	!	!	!	!	!	!	!	!	!	!LO:TX:t=P:problem=oddech jako rozdzielacz słów	!	!	!	!	!	!	!
2c\	.	2c\	.	.	.	.	2e\	.	.	.	.	1e	-lis	-mans	-mni	-rum	1a,<	-lis	per-	.	-mni	.	.	-rum
2C/	.	2C/	.	-mans	-mni	.	4d\	.	.	.	.	.	.	.	.	.	.	.	.	.	.	.	.	.
.	.	.	.	.	.	.	4c\	.	.	.	.	.	.	.	.	.	.	.	.	.	.	.	.	.
0E	#	1.E	.	per-	tem-	.	1.B	.	.	.	.	1.e	Vn-	per-	tem-	S[ae]-	1.a	Vn-	-pe-	.	tem-	.	.	Sae-
!	!	!	!	!	!	!	!	!	!	!	!	!	!	!	!	!	!LO:TX:t=P:problem=# above and below	!	!	!	!	!	!	!
.	.	2E/	-cti-	-pe-	-po-	-cu-	2B\	-cti-	-pe-	-po-	-cu-	2d\	-cti-	-pe-	-po-	-cu-	2g#X/	-cti-	.	.	-po-	.	.	-cu-
=19	=19	=19	=19	=19	=19	=19	=19	=19	=19	=19	=19	=19	=19	=19	=19	=19	=19	=19	=19	=19	=19	=19	=19	=19
0.AA	.	0.AA	-o	-ti	-re.	-la.	0.c	-o	-ti	-re	-la.	0.c	-o	-ti	-re	-la.	0.a;	-o.	-ti.	.	-re.	.	.	-la.
==	==	==	==	==	==	==	==	==	==	==	==	==	==	==	==	==	==	==	==	==	==	==	==	==
*-	*-	*-	*-	*-	*-	*-	*-	*-	*-	*-	*-	*-	*-	*-	*-	*-	*-	*-	*-	*-	*-	*-	*-	*-
!!!system-decoration: [(s1,s2,s3,s4)]s5
!!!RDF**kern: < = below
!!!AIN: 1 alto 1 bass 1 soprn 1 tenor 1 violb
!!!ENC: Andrzej Gręziak
!!!END: 2021-10-26
!!!ENC: Marta Lawrence
!!!END: 2021-11-18
